X: 28026
T: Moving In Old Decency
R: reel
M: 4/4
K: Edorian
A|Beed B2eB|df{f}ed BGAG|FADF ADFA|DFAD ~F3A|
Beed BeeB|dfed BdAF|~G3A {B}AG .dB|AGFG~E3:|
A|Beed edBA|.B/.c/d ef gefe|d2ce dBAF ABde f2ed|
Beef edBA|Bdef gzBA|~G3A {B}AG .dB|AGFD ~E2FA|
Beed edBA|.B/.c/d ef .gzfe|(d/e/d) ce dBAF|ABde fa{f}ed|
Beef edBA|Bdef gB{d}BA|~G3A {B}AG .dB|AGFG E3||

